icons/line/light-bulb.svg

<svg width="24" height="24" viewBox="0 0 24 24" fill="none" xmlns="http://www.w3.org/2000/svg">
<path d="M10 16.584C10.6125 16.8516 11.2889 17 12 17C12.7111 17 13.3875 16.8516 14 16.584M10 16.584C8.2341 15.8124 7 14.0503 7 12C7 9.23858 9.23858 7 12 7C14.7614 7 17 9.23858 17 12C17 14.0503 15.7659 15.8124 14 16.584M10 16.584V19C10 20.1046 10.8954 21 12 21V21C13.1046 21 14 20.1046 14 19V16.584M20 12H21M4 12H3M12 4V3M17.5 6.5L18.5 5.5M6.5 6.5L5.5 5.5" stroke="currentColor" stroke-width="2" stroke-linecap="round" stroke-linejoin="round"/>
</svg>

<svg width="24" height="24" fill="none" xmlns="http://www.w3.org/2000/svg"><path d="M10 16.584A4.983 4.983 0 0012 17c.711 0 1.387-.148 2-.416m-4 0A5.001 5.001 0 0112 7a5 5 0 012 9.584m-4 0V19a2 2 0 002 2v0a2 2 0 002-2v-2.416M20 12h1M4 12H3m9-8V3m5.5 3.5l1-1m-12 1l-1-1" stroke="currentColor" stroke-width="2" stroke-linecap="round" stroke-linejoin="round"/></svg>
